svgs/sharp-light/arrow-down-wide-short.svg

<svg xmlns="http://www.w3.org/2000/svg" viewBox="0 0 576 512"><!--! Font Awesome Pro 6.6.0 by @fontawesome - https://fontawesome.com License - https://fontawesome.com/license (Commercial License) Copyright 2024 Fonticons, Inc. --><path d="M139.3 467.3L128 478.6l-11.3-11.3-88-88L17.4 368 40 345.4l11.3 11.3L112 417.4 112 48l0-16 32 0 0 16 0 369.4 60.7-60.7L216 345.4 238.6 368l-11.3 11.3-88 88zM304 464l-16 0 0-32 16 0 64 0 16 0 0 32-16 0-64 0zm0-128l-16 0 0-32 16 0 128 0 16 0 0 32-16 0-128 0zm0-128l-16 0 0-32 16 0 192 0 16 0 0 32-16 0-192 0zm0-128l-16 0 0-32 16 0 256 0 16 0 0 32-16 0L304 80z"/></svg>

<svg xmlns="http://www.w3.org/2000/svg" viewBox="0 0 576 512"><!--! Font Awesome Pro 6.4.0 by @fontawesome - https://fontawesome.com License - https://fontawesome.com/license (Commercial License) Copyright 2023 Fonticons, Inc. --><path d="M139.3 467.3L128 478.6l-11.3-11.3-88-88L17.4 368 40 345.4l11.3 11.3L112 417.4V48 32h32V48 417.4l60.7-60.7L216 345.4 238.6 368l-11.3 11.3-88 88zM304 464H288V432h16 64 16v32H368 304zm0-128H288V304h16H432h16v32H432 304zm0-128H288V176h16H496h16v32H496 304zm0-128H288V48h16H560h16V80H560 304z"/></svg>
